X:199
T:Irish Vauxhall
M:2/4
L:1/8
B:Thompson's Compleat Collection of 200 Favourite Country Dances, vol. 2 (London, 1765)
Z:Transcribed and edited by Flynn Titford-Mock, 2007
Z:abc's:AK/Fiddler's Companion
K:D
d2 (f/e/)(d/c/) | d A2 d | efga | f d2 e | fgab | efga | d(e/f/) gf |1 {f}e4 :|2 {f}e2 d/e/f/g/ ||
|: a2 (b/a/)(g/f/) | g e2 f | g2 a/g/f/e/ | f d2 g | (f/g/a) (e/f/g) | (f/g/a) (e/f/g) | fd Ac |1 defg :|2 d4 |]

